packages/ffe-icons/icons/open/300/md/shelf_position.svg

<svg xmlns="http://www.w3.org/2000/svg" height="24" viewBox="0 -960 960 960" width="24"><path d="M212.309-140.001q-30.308 0-51.308-21t-21-51.308v-535.382q0-30.308 21-51.308t51.308-21h535.382q30.308 0 51.308 21t21 51.308v535.382q0 30.308-21 51.308t-51.308 21H212.309Zm547.691-190H200v117.692q0 4.616 3.846 8.463 3.847 3.846 8.463 3.846h535.382q4.616 0 8.463-3.846 3.846-3.847 3.846-8.463v-117.692Zm-107.693-59.998H760v-357.692q0-4.616-3.846-8.463-3.847-3.846-8.463-3.846h-95.384v370.001Zm-452.307 0h107.693V-760h-95.384q-4.616 0-8.463 3.846-3.846 3.847-3.846 8.463v357.692Zm167.691 0h224.618V-760H367.691v370.001Z"/></svg>

<svg xmlns="http://www.w3.org/2000/svg" height="24" viewBox="0 -960 960 960" width="24"><path d="M212.31-140Q182-140 161-161q-21-21-21-51.31v-535.38Q140-778 161-799q21-21 51.31-21h535.38Q778-820 799-799q21 21 21 51.31v535.38Q820-182 799-161q-21 21-51.31 21H212.31ZM760-330H200v117.69q0 4.62 3.85 8.46 3.84 3.85 8.46 3.85h535.38q4.62 0 8.46-3.85 3.85-3.84 3.85-8.46V-330Zm-107.69-60H760v-357.69q0-4.62-3.85-8.46-3.84-3.85-8.46-3.85h-95.38v370ZM200-390h107.69v-370h-95.38q-4.62 0-8.46 3.85-3.85 3.84-3.85 8.46V-390Zm167.69 0h224.62v-370H367.69v370Z"/></svg>
